resources/icons/20px/drive-time.svg

<svg xmlns="http://www.w3.org/2000/svg" viewBox="0 0 20 20">
  <path d="M20.01 7.7c0-.63-.5-1.14-1.1-1.14h-1.32l-.95-2.57c-.24-.64-.95-1.31-1.59-1.5 0 0-1.65-.49-5.05-.49s-5.04.49-5.04.49c-.63.19-1.35.86-1.59 1.5l-.95 2.57H1.1C.5 6.56 0 7.07 0 7.7s.5 1.14 1.1 1.14h.47l-.34.91c-.24.64-.43 1.72-.43 2.4v5.39c0 .8.63 1.45 1.4 1.45s1.4-.65 1.4-1.45v-.83h12.8v.83c0 .8.63 1.45 1.4 1.45s1.4-.65 1.4-1.45v-5.39c0-.68-.19-1.77-.43-2.4l-.34-.91h.47c.61 0 1.11-.51 1.11-1.14m-16.47.34 1.12-3.16c.08-.22.32-.39.54-.39h9.6c.22 0 .46.17.54.39l1.12 3.16c.08.21-.04.39-.26.39H3.8c-.22-.01-.34-.18-.26-.39m.96 4.94c-.83 0-1.5-.67-1.5-1.5s.67-1.5 1.5-1.5 1.5.68 1.5 1.5c0 .83-.67 1.5-1.5 1.5m11 0c-.83 0-1.5-.67-1.5-1.5s.67-1.5 1.5-1.5 1.5.67 1.5 1.5-.67 1.5-1.5 1.5"/>
</svg>

<?xml version="1.0" encoding="utf-8"?>
<!-- Generator: Adobe Illustrator 17.1.0, SVG Export Plug-In . SVG Version: 6.00 Build 0)  -->
<!DOCTYPE svg PUBLIC "-//W3C//DTD SVG 1.1//EN" "http://www.w3.org/Graphics/SVG/1.1/DTD/svg11.dtd">
<svg version="1.1" id="Layer_1" xmlns="http://www.w3.org/2000/svg" xmlns:xlink="http://www.w3.org/1999/xlink" x="0px" y="0px"
	 viewBox="0 0 20 20" enable-background="new 0 0 20 20" xml:space="preserve">
<g id="drive_time_1_">
	<g>
		<path fill-rule="evenodd" clip-rule="evenodd" d="M20.01,7.7c0-0.63-0.5-1.14-1.1-1.14h-1.32l-0.95-2.57
			c-0.24-0.64-0.95-1.31-1.59-1.5C15.05,2.49,13.4,2,10,2C6.6,2,4.96,2.49,4.96,2.49c-0.63,0.19-1.35,0.86-1.59,1.5L2.42,6.56H1.1
			C0.5,6.56,0,7.07,0,7.7c0,0.63,0.5,1.14,1.1,1.14h0.47L1.23,9.75c-0.24,0.64-0.43,1.72-0.43,2.4v5.39c0,0.8,0.63,1.45,1.4,1.45
			c0.77,0,1.4-0.65,1.4-1.45v-0.83h12.8v0.83c0,0.8,0.63,1.45,1.4,1.45s1.4-0.65,1.4-1.45v-5.39c0-0.68-0.19-1.77-0.43-2.4
			l-0.34-0.91h0.47C19.51,8.84,20.01,8.33,20.01,7.7z M3.54,8.04l1.12-3.16C4.74,4.66,4.98,4.49,5.2,4.49h9.6
			c0.22,0,0.46,0.17,0.54,0.39l1.12,3.16c0.08,0.21-0.04,0.39-0.26,0.39H3.8C3.58,8.42,3.46,8.25,3.54,8.04z M4.5,12.98
			c-0.83,0-1.5-0.67-1.5-1.5c0-0.83,0.67-1.5,1.5-1.5S6,10.66,6,11.48C6,12.31,5.33,12.98,4.5,12.98z M15.5,12.98
			c-0.83,0-1.5-0.67-1.5-1.5c0-0.83,0.67-1.5,1.5-1.5s1.5,0.67,1.5,1.5C17,12.31,16.33,12.98,15.5,12.98z"/>
	</g>
</g>
</svg>
